assets/images/Needs-Assessment.svg

<?xml version="1.0" encoding="utf-8"?>
<!-- Generator: Adobe Illustrator 27.8.0, SVG Export Plug-In . SVG Version: 6.00 Build 0)  -->
<svg version="1.1" id="Layer_1" xmlns="http://www.w3.org/2000/svg" xmlns:xlink="http://www.w3.org/1999/xlink" x="0px" y="0px"
	 viewBox="0 0 80 80" style="enable-background:new 0 0 80 80;" xml:space="preserve">
<style type="text/css">
	.st0{fill:url(#SVGID_1_);}
	.st1{fill:url(#SVGID_00000158721527272527425390000017970187808198105530_);}
	.st2{fill:url(#SVGID_00000069375067639075246780000010095153519904409999_);}
	.st3{fill:url(#SVGID_00000064317778665518077880000001380091292125021606_);}
	.st4{fill:url(#SVGID_00000054242883009014303440000008412745924500398234_);}
	.st5{fill:url(#SVGID_00000091003892376422899720000016345794390544728453_);}
	.st6{fill:url(#SVGID_00000047051990433370785130000013923108571903414188_);}
	.st7{fill:url(#SVGID_00000142160520506041056370000007838855500840889775_);}
	.st8{fill:url(#SVGID_00000178913174260024529280000011137318287660189119_);}
	.st9{fill:url(#SVGID_00000171709004827423953870000014637418768282236836_);}
	.st10{fill:url(#SVGID_00000045589433581124632270000009653487447479896510_);}
	.st11{fill:url(#SVGID_00000163774394358417555750000013494216839150616459_);}
	.st12{fill:url(#SVGID_00000113349801738370276490000017669139829355431574_);}
	.st13{fill:url(#SVGID_00000053506165933355621200000012266515609211341451_);}
</style>
<g id="eioNDV.tif">
	<g>
		<linearGradient id="SVGID_1_" gradientUnits="userSpaceOnUse" x1="6.9534" y1="11.4839" x2="66.9836" y2="68.0374">
			<stop  offset="0" style="stop-color:#B1A45D"/>
			<stop  offset="1" style="stop-color:#453E1B"/>
		</linearGradient>
		<path class="st0" d="M6.8,36c0-7.3,0-14.6,0-22c0-5,2.4-7.5,7.4-7.5c12.5,0,24.9,0,37.4,0c5,0,7.5,2.5,7.5,7.5c0,9,0,17.9,0,26.9
			c0,1.4-0.3,2.1-1.9,2.2c-10,1.2-16.5,10.9-14,20.7c0.4,1.5,0.3,1.7-1.3,1.7c-9.2,0-18.4,0-27.6,0c-1.8,0-3.6-0.2-5.1-1.3
			c-1.9-1.5-2.5-3.4-2.5-5.7C6.8,50.9,6.8,43.5,6.8,36z M39.6,26.4C39.6,26.4,39.6,26.4,39.6,26.4c3.3,0,6.5,0,9.8,0
			c1.2,0,2.1-0.4,2-1.7c0-1.3-0.9-1.7-2.1-1.7c-6.5,0-13,0-19.5,0c-1.5,0-2.2,0.6-2.2,1.7c0.1,1.4,1.1,1.6,2.2,1.6
			C33.1,26.4,36.4,26.4,39.6,26.4z M39.6,38.2c3.2,0,6.4,0,9.7,0c1.5,0,2.3-0.6,2.2-1.7c-0.1-1.4-1.1-1.6-2.3-1.6
			c-6.4,0-12.9,0-19.3,0c-1.2,0-2.2,0.3-2.2,1.7c0,1.4,1.1,1.7,2.2,1.7C33.1,38.2,36.4,38.2,39.6,38.2z M35.6,47.3c-2,0-3.9,0-5.9,0
			c-1.1,0-1.9,0.3-2,1.6c0,1.3,0.8,1.7,1.9,1.7c3.9,0,7.9,0,11.8,0c1.1,0,1.9-0.6,1.9-1.7c0-1.2-0.9-1.6-2-1.6
			C39.4,47.3,37.5,47.3,35.6,47.3z M18.3,38.5c0.8,0,1.5-0.4,2-1c1.4-1.5,2.9-3,4.2-4.5c0.7-0.8,0.9-1.6,0.1-2.4
			c-0.9-0.8-1.7-0.6-2.5,0.2c-0.7,0.7-1.4,1.5-2.2,2.3c-1.3,1.3-1.3,1.3-2.5,0c-0.7-0.7-1.4-1-2.3-0.5c-0.9,0.6-1,1.4-0.5,2.3
			c0.5,0.9,1.1,1.8,1.8,2.6C16.9,38.1,17.6,38.4,18.3,38.5z M18.4,50.7c0.8,0,1.4-0.3,1.9-0.8c1.4-1.5,2.9-3,4.3-4.5
			c0.7-0.8,0.8-1.7,0-2.4c-0.8-0.8-1.7-0.6-2.4,0.1c-0.8,0.8-1.6,1.6-2.3,2.4c-1.2,1.3-1.2,1.3-2.5,0c-0.7-0.8-1.5-0.9-2.3-0.4
			c-0.9,0.6-0.9,1.4-0.4,2.3c0.5,0.9,1.1,1.7,1.7,2.5C16.9,50.5,17.6,50.8,18.4,50.7z M18.4,26.7c0.6,0,1.2-0.2,1.6-0.6
			c1.6-1.6,3.2-3.2,4.7-4.9c0.7-0.7,0.7-1.6,0-2.3c-0.8-0.8-1.7-0.6-2.4,0.1c-0.8,0.8-1.7,1.6-2.4,2.5c-0.9,1.1-1.6,1.4-2.4-0.1
			c-0.5-0.9-1.5-1.1-2.4-0.5c-0.8,0.6-0.9,1.5-0.4,2.3c0.5,0.9,1.1,1.7,1.7,2.5C16.9,26.4,17.6,26.7,18.4,26.7z"/>
		
			<linearGradient id="SVGID_00000075164539545848449290000017930151862469212325_" gradientUnits="userSpaceOnUse" x1="7.5993" y1="10.7983" x2="67.6295" y2="67.3518">
			<stop  offset="0" style="stop-color:#B1A45D"/>
			<stop  offset="1" style="stop-color:#453E1B"/>
		</linearGradient>
		<path style="fill:url(#SVGID_00000075164539545848449290000017930151862469212325_);" d="M58.6,73.4C51.4,73.3,45,66.9,45.3,59
			c0.4-8.2,7.1-13.8,14.4-13.4c8.9,0.5,13.9,7.7,13.4,14.6C72.6,68.2,66,74.1,58.6,73.4z M56.9,66c0.9,0.1,1.6-0.3,2.2-0.9
			c0.9-0.9,1.8-1.9,2.7-2.8c1.8-1.9,3.7-3.8,5.5-5.8c1-1.1,1.1-2.4,0.3-3.2c-0.8-0.9-2.2-0.7-3.3,0.4c-0.4,0.4-0.9,0.9-1.3,1.4
			c-1.6,1.7-3.3,3.4-4.9,5.1c-0.8,1-1.4,0.9-2.1-0.1c-0.5-0.7-1.2-1.4-1.8-2c-1-1-2.1-1.1-2.9-0.3c-0.9,0.8-0.9,2,0,3.1
			c1.2,1.4,2.4,2.8,3.6,4.1C55.3,65.5,55.9,66,56.9,66z"/>
	</g>
</g>
</svg>

<svg width="80" height="80" viewBox="0 0 80 80" fill="none" xmlns="http://www.w3.org/2000/svg">
<path d="M6.80001 36C6.80001 28.7 6.80001 21.4 6.80001 14C6.80001 9 9.20001 6.5 14.2 6.5C26.7 6.5 39.1 6.5 51.6 6.5C56.6 6.5 59.1 9 59.1 14C59.1 23 59.1 31.9 59.1 40.9C59.1 42.3 58.8 43 57.2 43.1C47.2 44.3 40.7 54 43.2 63.8C43.6 65.3 43.5 65.5 41.9 65.5C32.7 65.5 23.5 65.5 14.3 65.5C12.5 65.5 10.7 65.3 9.20001 64.2C7.30001 62.7 6.70001 60.8 6.70001 58.5C6.80001 50.9 6.80001 43.5 6.80001 36ZM39.6 26.4C42.9 26.4 46.1 26.4 49.4 26.4C50.6 26.4 51.5 26 51.4 24.7C51.4 23.4 50.5 23 49.3 23C42.8 23 36.3 23 29.8 23C28.3 23 27.6 23.6 27.6 24.7C27.7 26.1 28.7 26.3 29.8 26.3C33.1 26.4 36.4 26.4 39.6 26.4ZM39.6 38.2C42.8 38.2 46 38.2 49.3 38.2C50.8 38.2 51.6 37.6 51.5 36.5C51.4 35.1 50.4 34.9 49.2 34.9C42.8 34.9 36.3 34.9 29.9 34.9C28.7 34.9 27.7 35.2 27.7 36.6C27.7 38 28.8 38.3 29.9 38.3C33.1 38.2 36.4 38.2 39.6 38.2ZM35.6 47.3C33.6 47.3 31.7 47.3 29.7 47.3C28.6 47.3 27.8 47.6 27.7 48.9C27.7 50.2 28.5 50.6 29.6 50.6C33.5 50.6 37.5 50.6 41.4 50.6C42.5 50.6 43.3 50 43.3 48.9C43.3 47.7 42.4 47.3 41.3 47.3C39.4 47.3 37.5 47.3 35.6 47.3ZM18.3 38.5C19.1 38.5 19.8 38.1 20.3 37.5C21.7 36 23.2 34.5 24.5 33C25.2 32.2 25.4 31.4 24.6 30.6C23.7 29.8 22.9 30 22.1 30.8C21.4 31.5 20.7 32.3 19.9 33.1C18.6 34.4 18.6 34.4 17.4 33.1C16.7 32.4 16 32.1 15.1 32.6C14.2 33.2 14.1 34 14.6 34.9C15.1 35.8 15.7 36.7 16.4 37.5C16.9 38.1 17.6 38.4 18.3 38.5ZM18.4 50.7C19.2 50.7 19.8 50.4 20.3 49.9C21.7 48.4 23.2 46.9 24.6 45.4C25.3 44.6 25.4 43.7 24.6 43C23.8 42.2 22.9 42.4 22.2 43.1C21.4 43.9 20.6 44.7 19.9 45.5C18.7 46.8 18.7 46.8 17.4 45.5C16.7 44.7 15.9 44.6 15.1 45.1C14.2 45.7 14.2 46.5 14.7 47.4C15.2 48.3 15.8 49.1 16.4 49.9C16.9 50.5 17.6 50.8 18.4 50.7ZM18.4 26.7C19 26.7 19.6 26.5 20 26.1C21.6 24.5 23.2 22.9 24.7 21.2C25.4 20.5 25.4 19.6 24.7 18.9C23.9 18.1 23 18.3 22.3 19C21.5 19.8 20.6 20.6 19.9 21.5C19 22.6 18.3 22.9 17.5 21.4C17 20.5 16 20.3 15.1 20.9C14.3 21.5 14.2 22.4 14.7 23.2C15.2 24.1 15.8 24.9 16.4 25.7C16.9 26.4 17.6 26.7 18.4 26.7Z" fill="#008A9B"/>
<path d="M58.6 73.4C51.4 73.3 45 66.9 45.3 59C45.7 50.8 52.4 45.2 59.7 45.6C68.6 46.1 73.6 53.3 73.1 60.2C72.6 68.2 66 74.1 58.6 73.4ZM56.9 66C57.8 66.1 58.5 65.7 59.1 65.1C60 64.2 60.9 63.2 61.8 62.3C63.6 60.4 65.5 58.5 67.3 56.5C68.3 55.4 68.4 54.1 67.6 53.3C66.8 52.4 65.4 52.6 64.3 53.7C63.9 54.1 63.4 54.6 63 55.1C61.4 56.8 59.7 58.5 58.1 60.2C57.3 61.2 56.7 61.1 56 60.1C55.5 59.4 54.8 58.7 54.2 58.1C53.2 57.1 52.1 57 51.3 57.8C50.4 58.6 50.4 59.8 51.3 60.9C52.5 62.3 53.7 63.7 54.9 65C55.3 65.5 55.9 66 56.9 66Z" fill="#008A9B"/>
</svg>
